assets/images/envelope-open-star.svg

<svg xmlns="http://www.w3.org/2000/svg" viewBox="0 0 20 20"><path d="M10.8015 6.15075L10.4375 5.38263H10.4361C10.2578 5.00592 9.7417 5.00592 9.56271 5.38263L9.19868 6.15075C9.12803 6.3006 8.99075 6.40422 8.83195 6.42803L8.01774 6.55127C7.61804 6.61149 7.45857 7.12263 7.74791 7.41602L8.33737 8.01399C8.45176 8.13093 8.50425 8.29827 8.47733 8.46282L8.33804 9.30656C8.26941 9.72038 8.68728 10.0362 9.04458 9.84082L9.77333 9.4424C9.91531 9.36468 10.0849 9.36468 10.2269 9.4424L10.9556 9.84082C11.3129 10.0362 11.7301 9.72038 11.6622 9.30656L11.5229 8.46282C11.4959 8.29827 11.5478 8.13022 11.6628 8.01399L12.2523 7.41602C12.5416 7.12263 12.3822 6.61149 11.9825 6.55127L11.1682 6.42803C11.0094 6.40422 10.8722 6.3006 10.8015 6.15075Z"/><path fill-rule="evenodd" clip-rule="evenodd" d="M17 6.44434V3C17 1.89543 16.1046 1 15 1H5C3.89543 1 3 1.89543 3 3V6.44434L1.38606 7.69962C1.14247 7.88908 1 8.18039 1 8.48898V16.9999C1 18.1045 1.89543 18.9999 3 18.9999H17C18.1046 18.9999 19 18.1045 19 16.9999V8.48898C19 8.18039 18.8575 7.88908 18.6139 7.69962L17 6.44434ZM15 3H5V10.5279L10 14.4565L15 10.5279V3Z"/></svg>

<svg xmlns="http://www.w3.org/2000/svg" viewBox="0 0 20 20"><path d="m10.802 6.15-.364-.767h-.002a.479.479 0 0 0-.873 0l-.364.768a.49.49 0 0 1-.367.277l-.814.123c-.4.06-.56.572-.27.865l.59.598a.52.52 0 0 1 .14.449l-.14.844c-.069.413.35.73.707.534l.728-.399a.47.47 0 0 1 .454 0l.729.399c.357.195.774-.12.706-.534l-.14-.844a.52.52 0 0 1 .14-.449l.59-.598c.29-.293.13-.805-.27-.865l-.814-.123a.49.49 0 0 1-.366-.277"/><path fill-rule="evenodd" d="M17 6.444V3a2 2 0 0 0-2-2H5a2 2 0 0 0-2 2v3.444L1.386 7.7A1 1 0 0 0 1 8.489v8.51a2 2 0 0 0 2 2h14a2 2 0 0 0 2-2V8.49a1 1 0 0 0-.386-.79zM15 3H5v7.528l5 3.928 5-3.928z" clip-rule="evenodd"/></svg>
